X:1
T:Wet Hands - Minecraft
T:C418
T:Daniel Rosenfeld (arr. Aedan McBride)
T:"Wet Hands"
T:Copyright Mojang and Daniel Rosenfeld. I do not associate myself with these entities and generate no revenue through this arrangement.
T:Copyright Mojang and Daniel Rosenfeld. I do not associate myself with these entities and generate no revenue through this arrangement.
C:Daniel Rosenfeld (arr. Aedan McBride)
Z:Copyright Mojang and Daniel Rosenfeld. I do not associate myself with these entities and generate no revenue through this arrangement.
%%score { 1 | 2 }
L:1/8
Q:1/4=75
M:4/4
K:A
V:1 treble nm="Piano" snm="Pno."
V:2 bass 
V:1
"^Sempre andante"!pp!!<(! z8 | z8 | z8 | z8 |"_î™ come sopra" (G6 A2 | F6) (EF | %6
"_sempre cresc." G6 Bc- | c F4) z (ce!<)! |!mf! =g3 f d2 AB- | B8) |!mp! .=g2 .f2 (d2 AB- | B6 A2 | %12
!mf!!>(! E8) | x8 |[M:2/4] z4!>)! |[M:4/4]!mf! !arpeggio![DBd]3 c [Ac]2 [Ee][Ff]- | %16
!>(! [Ff] d3 z2 (Bc | d2 cd- d f2)!>)! z |!p! c6!mp! (B,A, |!mp! B,8) |!>(! z8!>)! | %21
!p! (=gfed edef- | f e3) a4 |!>(! .g.e.B.G .E4 | .B.G.E.B, G,4- | G,8!>)! | !fermata!z8 |] %27
V:2
!ped! (A,,C,A,B, CB,A,E,) | (D,F,CE C A,3)!ped-up! |!ped! (A,,C,A,B, CB,A,E,) | %3
 (D,F,CE C A,3)!ped-up! |!ped! (A,,C,A,B, CB,A,E,) | (D,F,CE C A,3)!ped-up! | %6
!ped! (A,,C,A,B, CB,A,E,) |!ped! (D,F,CE C!ped-up! A,2) z |!ped! (=G,,B,,D,F, A,F,D,!ped-up!B,,) | %9
 (=G,,B,,D,F, A,4) |!ped! (=G,,B,,D,F, A,F,D,B,,)!ped-up! |!ped! (=G,,B,,D,F, A,2)!ped-up! z2 | %12
!ped! (A,,C,A,B, CB,!ped-up!A,E,) | (A,,C,E,A,[I:staff -1] CEAc- |[M:2/4] c4) | %15
[M:4/4][I:staff +1] B,,D,F,A, C2 z2 | (B,,D,F,A, C2) z2 |!ped! (=G,,B,,D,=G,!ped-up! A,3) z | %18
 [A,,C,E,A,]6 z2 |!ped! (E,,G,,B,,E, G,E,B,,!ped-up!G,,) | (E,,G,,B,,E, G,E, A,,2) | %21
!ped! (=G,,B,,D,F, A,F,D,B,,)!ped-up! | (A,,C,E,A, CB,A,E,) |!ped! .E,,.G,,.B,,.E, .G,4!ped-up! | %24
 .E,,.G,,.B,,.E, .G,4 | (E,,G,,B,,.E,) .E,4 |!ppp! (E,,G,,B,,E, !fermata!B,,4) |] %27

